X: 3
T: Carolan's Welcome Pt.1
R: waltz
M: 3/4
L: 1/8
Q:1/2=80
K: Bmin
V:1
dc|:B2 de f2|B2 de f2|ef ed cB|(3ABc A2 F2|
V:2
dc|:B3c d2|d3c B2|c3d cB|A4 F2|
V:1
d3c B2|e3d c2|df F2 A2|B4 dc|
V:2
d3A GF|G3A Bc|d3d cd|B4 dc|
V:1
B2 de f2|B2 de f2|ef ed cB|(3ABc A2 F2|
V:2
B3c d2|d3c B2|c3d cB|A4 F2|
V:1
a3g f2|b3a fe|df ed cd|[1 B4 dc :|[2 B4 B2|]
V:2
d6|e6|d4 cd|[1B6:|[2B6|]
